X: 15125
T: Gie's A Start
R: hornpipe
M: 4/4
K: Dmajor
(3ddd fa A2 ce|(3GGG Bd E2 EF|GFGA BaBc|defd gfec|
(3ddd fa A2 ce|(3GGG Bd dcBA|GFEF GABc|d2 D2 D3 A:|
a2 fd gecA|G2 Bd gfed|cdef gece|baa^g a2 f=g|
a2 fd gecA|G2 Bd gfed|cdef gecA|F2 D2 D2 fg:|

